icon-themes/breeze_svg/cmd/lc_notesmode.svg

<svg viewBox="0 0 24 24" xmlns="http://www.w3.org/2000/svg"><path d="m5 4v16h6v-1h-5v-14h12v6h1v-7zm2 2v6h10v-6zm1 1h8v4h-8zm10 5-1 1-5 5v1 1h2l1-1 4-4 1-1zm-.28125 1.6875.5625.59375-4.96875 5-.59375-.59375zm-10.71875.3125v1h6v-1zm0 2v1h4v-1z" fill="#4d4d4d"/></svg>

<svg xmlns="http://www.w3.org/2000/svg" viewBox="0 0 24 24">
 <path 
     style="fill:#4d4d4d" 
     d="M 5 4 L 5 20 L 11 20 L 11 19 L 6 19 L 6 5 L 18 5 L 18 11 L 19 11 L 19 4 L 5 4 z M 7 6 L 7 12 L 17 12 L 17 6 L 7 6 z M 8 7 L 16 7 L 16 11 L 8 11 L 8 7 z M 18 12 L 17 13 L 12 18 L 12 19 L 12 20 L 14 20 L 15 19 L 19 15 L 20 14 L 18 12 z M 17.71875 13.6875 L 18.28125 14.28125 L 13.3125 19.28125 L 12.71875 18.6875 L 17.71875 13.6875 z M 7 14 L 7 15 L 13 15 L 13 14 L 7 14 z M 7 16 L 7 17 L 11 17 L 11 16 L 7 16 z "
     />
 </svg>
